htdocs/bitrix/js/ui/icons/service/images/ui-service-ya-direct.svg

<svg xmlns="http://www.w3.org/2000/svg" width="42" height="42" viewBox="-12 -12 42 42">
  <path fill="#FFFFFF" fill-rule="evenodd" d="M13.7987228,11.7957447 L13.0695825,11.7957447 L13.0695825,13.6340426 L9.36779324,13.6340426 L9.36779324,11.7957447 L8.4612326,11.7957447 L8.4612326,18 L4.75944334,18 L4.75944334,11.7957447 L3.70178926,11.7957447 L3.70178926,18 L0,18 L0,11.7957447 L0,0 L17.526839,0 L17.526839,11.7957447 L17.5005121,11.7957447 L19,16.812766 L15.2982107,16.812766 L13.7987228,11.7957447 Z M4.53280318,3.14042553 L4.53280318,4.67234043 L12.6163022,4.67234043 L12.6163022,3.14042553 L4.53280318,3.14042553 Z M4.53280318,6.5106383 L4.53280318,8.04255319 L12.6163022,8.04255319 L12.6163022,6.5106383 L4.53280318,6.5106383 Z"/>
</svg>

<svg xmlns="http://www.w3.org/2000/svg" width="42" height="42" viewBox="-12 -12 42 42"><path fill="#FFF" fill-rule="evenodd" d="M13.799 11.796h-.73v1.838H9.369v-1.838H8.46V18H4.76v-6.204H3.702V18H0V0h17.527v11.796H17.5L19 16.813h-3.702l-1.5-5.017zM4.533 3.14v1.532h8.083V3.14H4.533zm0 3.37v1.533h8.083V6.51H4.533z"/></svg>
